packages/foundations/assets/icons/functional/images/maps/compass_14.svg

<svg width="14" height="14" viewBox="0 0 14 14" fill="none" xmlns="http://www.w3.org/2000/svg">
<g clip-path="url(#clip0_186_13)">
<g clip-path="url(#clip1_186_13)">
<path fill-rule="evenodd" clip-rule="evenodd" d="M6.99999 0.538467C10.5625 0.538467 13.4615 3.43683 13.4615 7.00001C13.4615 10.5632 10.5625 13.4615 6.99999 13.4615C3.43753 13.4615 0.538452 10.5625 0.538452 7.00001C0.538452 3.43754 3.43753 0.538467 6.99999 0.538467ZM6.99999 1.97436C4.22871 1.97436 1.97435 4.22944 1.97435 7.00001C1.97435 9.77057 4.22871 12.0256 6.99999 12.0256C9.77127 12.0256 12.0256 9.77057 12.0256 7.00001C12.0256 4.22944 9.77127 1.97436 6.99999 1.97436ZM8.00296 3.93221C8.23343 3.74698 8.55435 3.72257 8.81066 3.87047C9.06553 4.01908 9.20481 4.30913 9.1603 4.60134L8.69076 7.66626C8.66348 7.8436 8.57158 8.00442 8.4323 8.11642L5.99702 10.0829C5.76655 10.2688 5.4442 10.2947 5.18717 10.1461C4.93014 9.99816 4.79086 9.70595 4.83681 9.41303L5.32286 6.32083C5.35086 6.14421 5.44348 5.98411 5.58348 5.87211L8.00296 3.93221ZM7.46235 6.20524L6.69773 6.81765L6.54481 7.79478L7.31445 7.17375L7.46235 6.20524Z" fill="#1A1C1F"/>
</g>
</g>
<defs>
<clipPath id="clip0_186_13">
<rect width="14" height="14" fill="white"/>
</clipPath>
<clipPath id="clip1_186_13">
<rect width="14" height="14" fill="white"/>
</clipPath>
</defs>
</svg>

<svg xmlns="http://www.w3.org/2000/svg" width="14" height="14" fill="none"><g clip-path="url(#a)"><g clip-path="url(#b)"><path fill="#1A1C1F" fill-rule="evenodd" d="M7 .538A6.47 6.47 0 0 1 13.461 7 6.47 6.47 0 0 1 7 13.461 6.47 6.47 0 0 1 .538 7 6.47 6.47 0 0 1 7 .538m0 1.436A5.03 5.03 0 0 0 1.974 7 5.03 5.03 0 0 0 7 12.026 5.03 5.03 0 0 0 12.026 7 5.03 5.03 0 0 0 7 1.974m1.003 1.958a.717.717 0 0 1 1.157.67l-.47 3.064a.72.72 0 0 1-.258.45l-2.435 1.967a.718.718 0 0 1-1.16-.67l.486-3.092a.72.72 0 0 1 .26-.449zm-.54 2.273-.765.613-.153.977.77-.621z" clip-rule="evenodd"/></g></g><defs><clipPath id="a"><path fill="#fff" d="M0 0h14v14H0z"/></clipPath><clipPath id="b"><path fill="#fff" d="M0 0h14v14H0z"/></clipPath></defs></svg>
